!!!COM: Bach, Johann Sebastian
!!!OTL: 224. Das walt' Gott Vater und Gott Sohn
!!!ONM: No. 224
!!!OCL: Erk
!!!SCA: BWV 290
!!!YOE: Riemenschneider, Albert
!!!OPR: 371 Harmonized Chorales and 69 Chorale Melodies with Figured Bass
!!!OPT: Bach Chorale Harmonizations
**harm	**root	**kern	**kern	**kern	**kern
!	!	!bass	!tenor	!alto	!sprno
*Iorgan	*Iorgan	*Iorgan	*Iorgan	*Iorgan	*Iorgan
*k[f#c#g#]	*k[f#c#g#]	*k[f#c#g#]	*k[f#c#g#]	*k[f#c#g#]	*k[f#c#g#]
*A:	*A:	*A:	*A:	*A:	*A:
*met(c)	*met(c)	*met(c)	*met(c)	*met(c)	*met(c)
*M4/4	*M4/4	*M4/4	*M4/4	*M4/4	*M4/4
*MM60	*MM60	*MM60	*MM60	*MM60	*MM60
I	4FF	4A	4c#	4e	4a
=1	=1	=1	=1	=1	=1
I	4FF	4A	4e	4a	4cc#
Ib	4FF	8C#	4e	4a	4ee
.	.	8D	.	.	.
V	4CC	4E	4B	4g#	4ee
Vb/vi	4AA	4E#	4c#	[4g#	4cc#
=2	=2	=2	=2	=2	=2
vi	4DD	4F#	4c#	8g#]	4a
.	.	.	.	8f#	.
Vb	4CC	4G#	4B	4e	4b
I;	4FF;	4A;	4A;	4e;	4cc#;
I	4FF	4A	4c#	4e	4a
=3	=3	=3	=3	=3	=3
I	4FF	4.A	4c#	4a	4ee
Vb	4CC	.	4e	4b	4ee
.	.	8G#	.	.	.
vi	4DD	4F#	4a	8cc#	4ff#
.	.	.	.	8dd#	.
iii	4AA	8c#	4g#	4ee	4gg#
.	.	8B	.	.	.
=4	=4	=4	=4	=4	=4
I	4FF	4A	4cc#	4.ee	8aa
.	.	.	.	.	8gg#
V/V	4GG	4B	8f#	.	4ff#
.	.	.	16b	8dd#	.
.	.	.	16a	.	.
V;	4CC;	4E;	4g#;	4b;	4ee;
Vb	4CC	4G#	4e	[4b	4ee
=5	=5	=5	=5	=5	=5
!!linebreak: 2
I	4FF	4A	4e	8b]	4cc#
.	.	.	.	16a	.
.	.	.	.	16g#	.
Ib	4FF	8C#	[4e	4a	4ee
.	.	8AA	.	.	.
IV	4BB-	4D	8e]	4a	4ff#
.	.	.	[8d	.	.
I	4FF	[4A	8d]	4a	4ee
.	.	.	8c#	.	.
=6	=6	=6	=6	=6	=6
V7b	4CC	8A]	4B	8b	4dd
.	.	8G#	.	8e	.
I	4FF	4A	8.c#	8e	4cc#
.	.	.	.	[8a	.
.	.	.	16d	.	.
V;	4CC;	4E;	4e;	8a]	4b;
.	.	.	.	8g#;	.
Vb	4CC	4G#	4e	4b	4ee
=7	=7	=7	=7	=7	=7
I	4FF	4A	4e	4a	8cc#
.	.	.	.	.	8dd
Ib	4FF	4C#	4e	4a	4ee
IV	4BB-	4D	4f#	4a	4dd
V7	4CC	4E	8e	4g#	8cc#
.	.	.	8d	.	8b
=8	=8	=8	=8	=8	=8
vi	4DD	4F#	8c#	16f#	4a
.	.	.	.	16g#	.
.	.	.	16B	4a	.
.	.	.	16A	.	.
V	4CC	4E	8.e	.	4b
.	.	.	.	8g#	.
.	.	.	16d	.	.
I;	4FF;	4A;	4c#;	4e;	4a;
==	==	==	==	==	==
*-	*-	*-	*-	*-	*-
!!!CDT: 1685/3//-1750/7/28
!!!OCY: Deutschland
!!!AGN: chorale
!!!AST: Baroque
!!!AIN: vox
!!!YOY: 1941
!!!PPP: New York; London
!!!PPR: G. Schirmer
!!!ENC: David Huron
!!!EED: David Huron
!!!YEN: United States of America
!!!YER: 1992
!!!YEC: Copyright 1992 David Huron
!!!YEM: Rights to all derivative electronic formats reserved.
!!!YER: March 20, 1996
!!!AMT: simple quadruple
!!!EEV: 1.1
!!chor2scor: -l 2 -s 0.6 -o %b.pmx
